X:1
T:Altro non e' il mio cor - Disperatione amorosa
T:Giovanni Stefani
T:Source : Affetto amorosi-Canzonette ad una voce sola---Venetia---A.Vincenti---1621. Editor André Vierendeels (18/11/15).
T:Notes : Original clefs : C1, F4 Alfabetto et intavolatura per chitarra Spagnola Terza impressione (first print 1618)
T:Altro non e'il mio cor - Disperatione amorosa
C:Giovanni Stefani
%%score 1 { ( 2 3 ) | 4 }
L:1/8
Q:1/4=79
M:4/4
K:F
V:1 treble nm="Soprano" snm="S"
V:2 treble nm="BC" snm="BC"
V:3 treble 
V:4 bass 
V:1
 z2 F2 A3 c | B3 G A4- | A2 A2 B2 d2 | d2 ^c2 d4 | z2 F2 F2 E2 | F2 G2 A4 | A2 G2 A2 c2 | %7
w: Al- tro non|e'il mio cor,|_ che de- sir|e do- lor,|cia- scun pian-|ga'il mio can-|to, che chi lan-|
w: Sei ca- pei|di fin or',|_ co- me m'in-|se- gn'a- mor,|can- to, bei|lu- mi'ar- den-|ti, pur co- me'il|
w: Spes- so la|not- te'l di,|_ a- mor, che|mi fe- ri,|me- co pian-|ge'il mio ma-|le, mi- se- ro|
w: Si lie- ve'au-|ra non è,|_ Gom' el- l'a|fug- gir m'è,|se'l mio mal|prend' in gio-|co, non val gri-|
w: Deh, s'im- pe-|trar mer- ce,|_ a- mor non|val, ne fè,|las- so, che|piu m'a- van-|za, deh vat- te-|
 c2 =B2 c4- | c2 B2 B3 A | A3 G G4- | G2 G2 G2 G2 | G4 !fermata!F4 |] %12
w: guir mi fa,|_ sor- da com'|a- spe- sta|_ s'io pia- g'o|can- to.|
w: pian- to va,|_ il suon di|sua bel- ta,|_ dis- per- lo'a'i|ven- ti.|
w: ma che pro,|_ se giun- ger|non la puo,|_ ben ch'hab- bia|l'a- le.|
w: dar pie- ta,|_ ch'a- mor per|lei non ha,|_ sa- et- ta'o|fo- co.|
w: ne'an- cor tu,|_ che fai qui|me- co piu,|_ dol- ce spe-|ran- za.|
V:2
 c8 | B2 G2 A4- | A4 G2 F2 | A4 A4 | z2 F2 A2 G2 | F2 E2 F4- | F2 G2 c4 | d4 G4- | G2 B4 c2 | %9
 d4 B4- | B2 c2 B4 | c4 !fermata!A4 |] %12
V:3
 F8 | D2 E2 C4- | C4 D2 D2 | E4 ^F4 | D6 E2 | D2 C2 C4- | C2 E2 A4 | G4 E4- | E2 F2 G4- | %9
 G2 ^F2 G4- | G2 E2 D2 F2- | F2 E2 C4 |] %12
V:4
 z2 F,2 F,4 | G,2 C,2 F,4- | F,2 F,2 G,2 B,2 | A,4 D,4- | D,2 D,2 D,2 C,2 | D,2 E,2 F,4- | %6
 F,2 E,2 F,2 A,2 | G,4 C,4- | C,2 D,2 _E,2 C,2 | D,4 G,,4- | G,,2 A,,2 B,,2 D,2 | %11
 C,4 !fermata!F,,4 |] %12

